X: 19927
T: Jig Of Slurs, The
R: jig
M: 6/8
K: Dmajor
|:Add cdd|Bdd Add|Bdd Add|cee edB|
Add cdd|Bdd Add|Bdd cde|fdc d3:|
|:Aff fef|aff fed|Bee ede|fff edB|
Aff fef|aff fed|Bdd cde|fdc dcB:|
|:G2g gfg|agf gdB|G2g gfg|agf gdB|
G2g gfg|agf gfe|BAB efg|fed edB:|
|:GBB Bdd|dee edB|GBB Bdd|dee egg|
GBB Bdd|dee edB|BAB efg|fed edB:|

